X:1
T:Sound the trumpet
T:Sound the trumpet
T:Henry Purcell
C:Henry Purcell
%%score [ 1 2 ] { ( 3 4 ) | 5 }
L:1/8
Q:1/4=80
M:4/4
K:D
V:1 treble nm="Sopran"
V:2 treble nm="Alt"
V:3 treble nm="Cembalo"
V:4 treble 
V:5 bass 
V:1
 z8 | z8 |: A8- | A4- AG/F/ E F/G/ | F2 D2 z4 | z8 | z2 d3/2 d/ d A z2 | z2 A/B/A z2 G/A/G | %8
w: ||Sound|_ _ _ _ _ the _|Trum- pet.||Sound the Trum- pet!|Sound _ _ Sound _ _|
 z2 D/E/F/ G/ A A G3/2 F/ | E>G F/G/F/G/4F/4 E2 z2 | z8 | z A A A B A B c | d>e d/e/d/e/ d A A2 | %13
w: Sound _ _ the trum- pet till a|round _ _ _ _ _ _ _||You make the list'- ning shores re-|bound _ _ _ _ _ _ re- bound|
 z2 A2 B/A/ G/F/ F E/D/ |1 D4 z4 | z8 :|2 D4 z4 |: z4 z2 A A | A/B/A/B/ A/B/A/B/ c A z c | %19
w: the list'- * ning _ shores re- *|bound.||bound.-|On the|spright- * * * * * * ly haut- boy the|
 c/d/c/d/ ed/c/ B/c/B/c/ B/c/ B/A/ | A3 ^G A2 z A/ =G/ | F D F A d2 z2 | z d c B ^A c F B | %23
w: spright- * * * * * * * * * * * * ly _|haut- boy play. All the|in- stru- ments of joy,|All, all, all, all, the ins- tru-|
 B3 ^A B/c/B/c/ d2 | z c d2 z c d/c/ B | c/d/ e d c/B/ B2 z B | B A A2 z A A G | %27
w: ments of joy _ _ _ _|of joy that skill- * ful|num- * bers can em- * ploy, to|cel- e- brate, to cel- e-|
 GA/G/ F F F E E/F/ G | F2 z A A/B/A/B/ AG/F/ | E E z A A/B/A/B/ A/B/A/G/ | %30
w: brate _ _ _ the glo- ries of _ this|day. The glo- * * * * * *|* ries. the glo- * * * * * * *|
 F/G/F/G/ A/B/A/B/ =cd/c/ B/A/G/F/ | E/F/G/A/ F/G/ A F3 E/D/ |1 D4 z4 :|2 D4 z4 |] %34
w: |* * * * * * ries of this _|day.|day.|
V:2
 z8 | z8 |: z8 | z8 | A8- | A4- AG/F/ E F/G/ | F2 D2 z2 A3/2 A/ | A E F/G/F z2 E/F/E | %8
w: ||||Sound|_ _ _ _ _ the _|Trum- pet. Sound the|Trum- pet, Sound _ _ Sound _ _|
 z2 F/G/A/ G/ F F E3/2 D/ | C>E D/E/D/E/4D/4 C E E E | F E F G A>B A/B/A/B/ | A2 z2 z E E E | %12
w: Sound _ _ the trum- pet till a-|round _ _ _ _ _ _ _ You make the|list'- ning shores re- bound _ _ _ _ _|_ You make the|
 F E F G A>B A/B/A/B/ | A E E E F E/D/ D3/2 C/ |1 D4 z4 | z8 :|2 D4 z2 E E |: %17
w: list'- ning shores re- bound _ _ _ _ _|_ you make the list'- ning _ shores re-|bound.||bound. On the|
 E/F/E/F/ E/F/E/ F/ ^G E z A | F/^G/ A A3/2 G/ A2 z A | A/B/A/B/ c B/A/ ^G E C E | %20
w: spright- * * * * * * ly haut- boy the|spright- * ly haut- boy play. The|spright- * * * * ly _ haut- boy spright- ly|
 C3 B,/A,/ A,2 z2 | z2 z F/ E/ D B, D F | B2 z G F E D F | C/D/ E D3/2 C/ D2 z E | %24
w: haut- boy _ play.|All the in- stru- ments of|joy, all, all, all, all, the|in- * stru- ments of joy, of|
 F2 z ^G ^A F F B | B2 ^A3/2 B/ B2 z G | G F F2 z F F E | EF/E/ D D D C C/D/ E | D2 z2 z2 z A | %29
w: joy, that skill- ful num- bers|can _ em- ploy to|cel- e- brate, to cel- e-|brate _ _ _ the glo- ries of _ this|day. The|
 A/B/A/B/ AG/F/ E E z A | A/B/A/G/ F/G/F/G/ AB/A/ G/F/E/D/ | C/D/E/F/ D/E/ F D3 C |1 D4 z2 E E :|2 %33
w: glo- * * * * * * * ries The|glo- * * * * * * * * * * * * * *|* * * * * * ries of this|day. On the|
 D4 z4 |] %34
w: day.|
V:3
 dc/B/ A(d- d)c/B/ Ad- | dc/B/ Ad/c/ B/A/G/F/ E/F/G/A/ |: F2 z G A2 B2 | c2 A2 B2 A2 | %4
 A2 d2- d2 z d | ce d/e/f- fe/d/ c/d/e | [Fd]2 z [GBd] [Ad]2 [FA]B | %7
 [EAc]2 [FA]2 [GB]/[Ac]/[GB] [Ec]/d/[Ac] | [Fd]>d d[FA] [Ad]>d d[GB] | [EA]2 [FAd]2 [EGc]4 | %10
 [Fd] z z [cg] [df] z z [Bd] | [Ace] z [fa-]2 [Bda]g/f/ [ce]f/g/ | %12
 [Adf]>g f/g/f/g/ [df]>[eg] [df]/[eg]/[df]/[eg]/ | [Ae]/d/c/B/ A(d- d/e/)f/g/ [ce]A |1 %14
 dc/B/ Ad- dc/B/ Ad- | dc/B/ Ad/c/ B/A/G/F/ E/F/G/A/ :|2 dc/B/ A^G A4 |: %17
 z2 z f [e^g]/[fa]/[eg]/[db]/ [ce]a/=g/ | f/^g/aa>g a/b/a/b/ c'2 | e2 e>e eB e2- | %20
 ed/c/ B/c/d [Ac]>B A2 | [FB]2 [Ec]2 [Fd]4- | [Fd]2 [Bd]2 [^A^c]2 [FB]2 | %23
 [GB]2 [F^Ac]2 d/e/d/e/ f2 | z g f2 z e d2 | [GBc]2 de [FBd] z [GB]2 | %26
 [GB][FA] z [gb] [gb][fa] z [Ba] | g2 f/e/d/c/ B2 c2 | d6 d>d | dA A>A B z c2 | %30
 d2- d=c/B/ A/B/c [GB][Be] | [Ac] z a2- ag/f/ e/f/g |1 f z A^G A4 :|2 [Adf]8 |] %34
V:4
 [FA]3 G A3 B | E2 F2 D2 C2 |: D2 x D- DE/F/ GF | E2 F2 G/F/E/D/ C/D/E | F3 G A2 x B | A4 B2 G2 | %6
 x8 | x8 | x8 | x8 | x8 | x8 | x8 | x8 |1 [FA]3 G A3 B | E2 F2 D2 C2 :|2 [FA]2 E2 [CE]2 z D |: %17
 E2 z2 x2 cA | dcBe c2 z d | e2 z2 z2 ^c2- | cB/A/ ^G2 A3 =G | x8 | x8 | x8 | B2 z c ^AcBF | x8 | %26
 x8 | cA A2- AG/F/ E/A/G/A/ | FEFG AEFB | EAFD DG/F/ E/F/G/A/ | F2 z G AFGB | A x z A B2 c2 |1 %32
 dc/B/ E2 [CE]2 z D :|2 x8 |] %34
V:5
 D,A,DE, F,A,DG, | A,CDF, G,E,A,A,, |: D,A,DE, F,A,DG, | A,CDF, G,E,A,A,, | D,A,DE, F,A,DG, | %5
 A,CDF, G,E,A,A,, | D,A,DE, F,A,DG, | A,CDF, G,E,A,A,, | D,A,DE, F,A,DG, | A,CDF, G,E,A,A,, | %10
 D,A,DE, F,A,DG, | A,CDF, G,E,A,A,, | D,A,DE, F,A,DG, | A,CDF, G,E,A,A,, |1 D,A,DE, F,A,DG, | %15
 A,CDF, G,E,A,A,, :|2 D,,D,C,B,, A,,E,A,B,, |: C,E,A,D, E,^G,A,C, | D,B,,E,E,, A,,E,A,B,, | %19
 C,E,A,D, E,^G,A,C, | D,B,,E,E,, A,,B,,C,A,, | D,E,D,C, B,,F,B,C, | D,F,B,E, F,^A,B,D, | %23
 E,C,F,F,, B,,F,B,C, | D,F,B,E, F,^A,B,D, | E,C,F,F,, B,,G,,B,,C, | D,A,DE, F,A,DG, | %27
 A,CDF, G,E,A,A,, | D,A,DE, F,A,DG, | A,CDF, G,E,A,A,, | D,A,DE, F,A,DG, | A,CDF, G,E,A,A,, |1 %32
 D,,D,C,B,, A,,E,A,B,, :|2 [D,,D,]8 |] %34

